packages/ndla-icons/svg/editor/SearchSaved.svg

<svg xmlns="http://www.w3.org/2000/svg" data-license="CC-BY 4.0" data-source="Knowit" viewBox="0 0 58 40.7">
  <path d="M6.8 16.4h21.4V6.8H6.8Zm1.8-7.8h17.8v6H8.6Zm10.4 13a6.7 6.7 0 0 0-6.8 6.7 6.8 6.8 0 1 0 13.5 0 6.7 6.7 0 0 0-6.7-6.7Zm3.5 10.2a4.7 4.7 0 0 1-3.5 1.5 5 5 0 0 1-5-5 5 5 0 0 1 5-5 5 5 0 0 1 3.5 8.5Z"/>
  <path d="m57.1 34.3-7.5-5.6a13.2 13.2 0 0 0 .8-3.3 10.1 10.1 0 0 0-9.5-10.8V9.2L31.7 0H5.3A5.3 5.3 0 0 0 0 5.2v30.3a5.2 5.2 0 0 0 5.2 5.2h30.4a5.2 5.2 0 0 0 5.2-5.2v-.6a9.7 9.7 0 0 0 5.3-1.9l7.5 5.7a2.7 2.7 0 0 0 1.8.5 2.1 2.1 0 0 0 1.5-.9l.6-.7a2.4 2.4 0 0 0-.4-3.3Zm-21.4 4.8H5.2a3.5 3.5 0 0 1-3.4-3.5V5.2a3.4 3.4 0 0 1 3.4-3.4h25.7l8.2 8.2v4.6a10.2 10.2 0 0 0-5.7 2.5 10.4 10.4 0 0 0-3.4 7 9.8 9.8 0 0 0 3.9 8.6 9.3 9.3 0 0 0 5.2 2.2v.6a3.6 3.6 0 0 1-3.4 3.6Zm4-5.9a8.5 8.5 0 0 1-7.9-9 8.3 8.3 0 0 1 8.9-7.9 8.5 8.5 0 0 1-1 16.9Zm16.4 3.3-.5.7-.4.2h-.5L47.5 32a10.9 10.9 0 0 0 1.3-1.7l7.2 5.3a.6.6 0 0 1 .1.9Z"/>
</svg>

<svg data-license="CC-BY 4.0" data-source="Knowit" xmlns="http://www.w3.org/2000/svg" viewBox="0 0 58 40.7">
  <path d="M6.8,16.4H28.2V6.8H6.8ZM8.6,8.6H26.4v6H8.6Z"/>
  <path d="M19,21.6a6.7,6.7,0,0,0-6.8,6.7,6.8,6.8,0,1,0,13.5,0A6.7,6.7,0,0,0,19,21.6Zm3.5,10.2A4.7,4.7,0,0,1,19,33.3a5,5,0,0,1-5-5,5,5,0,0,1,5-5,5,5,0,0,1,3.5,8.5Z"/>
  <path d="M57.1,34.3l-7.5-5.6a13.2,13.2,0,0,0,.8-3.3,10.1,10.1,0,0,0-9.5-10.8V9.2L31.7,0H5.3A5.3,5.3,0,0,0,0,5.2V35.5a5.2,5.2,0,0,0,5.2,5.2H35.6a5.2,5.2,0,0,0,5.2-5.2v-.6A9.7,9.7,0,0,0,46.1,33l7.5,5.7a2.7,2.7,0,0,0,1.8.5,2.1,2.1,0,0,0,1.5-.9l.6-.7A2.4,2.4,0,0,0,57.1,34.3ZM35.7,39.1H5.2a3.5,3.5,0,0,1-3.4-3.5V5.2A3.4,3.4,0,0,1,5.2,1.8H30.9L39.1,10v4.6a10.2,10.2,0,0,0-5.7,2.5,10.4,10.4,0,0,0-3.4,7,9.8,9.8,0,0,0,3.9,8.6,9.3,9.3,0,0,0,5.2,2.2v.6A3.6,3.6,0,0,1,35.7,39.1Zm4-5.9a8.5,8.5,0,0,1-7.9-9,8.3,8.3,0,0,1,8.9-7.9,8.5,8.5,0,0,1-1,16.9Zm16.4,3.3-.5.7-.4.2h-.5l-7.2-5.4a10.9,10.9,0,0,0,1.3-1.7L56,35.6h0A.6.6,0,0,1,56.1,36.5Z"/>
</svg>
